X:12
T:Haapolska
M:3/4
L:1/16
Q:1/4=100
S:Kausisten Pelimanniyhdistys
R:polska
K:D
|: "D" d3f a2a2 "A" efge | "D" d2 d2 fefg a2~f2 | d3f a2a2 "A" efge | !
"D" d2d2 fefg a2g2 |
"G" ~f2ef "A" g2fg "Em" b2ag | "A" fedc e2c2 "D" d3A :| !
|: "D" d3f a2a2 gfef | "Em" gagf "A7" edef ~g2fe | !
"E7" d2cB "A" ~c2Ac e2a2 | "E7" edcB "A" A2E2 A4 :||
